packages/icons/svg/Universe_Bedroom_48px.svg

<svg xmlns="http://www.w3.org/2000/svg" viewBox="0 0 48 48"><path d="M41 21.61v-8.89a2 2 0 00-.69-1.51C39.16 10.22 34.59 7 24.06 7S8.88 10.21 7.71 11.2A2 2 0 007 12.72v8.89a5.49 5.49 0 00-3 4.89V34a2 2 0 002 2h1v3a2 2 0 002 2h4a2 2 0 002-2v-3h18v3a2 2 0 002 2h4a2 2 0 002-2v-3h1a2 2 0 002-2v-7.5a5.49 5.49 0 00-3-4.89zm-31-8.39c1.3-.93 5.4-3.22 14.06-3.22S36.73 12.29 38 13.21V21h-2v-3a2 2 0 00-2-2h-6.5a2 2 0 00-2 2v3h-3v-3a2 2 0 00-2-2H14a2 2 0 00-2 2v3h-2zM34 21h-6.5v-3H34zm-13.5 0H14v-3h6.5zm-11 3h29a2.5 2.5 0 012.5 2.5V29H7v-2.5A2.5 2.5 0 019.5 24zM12 38h-2v-2h2zm26 0h-2v-2h2zm-5-5H7v-2h34v2z"/></svg>

<svg xmlns="http://www.w3.org/2000/svg" viewBox="0 0 48 48"><defs></defs><g id="Icon"><path  d="M41,21.61V12.72a2,2,0,0,0-.69-1.51C39.16,10.22,34.59,7,24.06,7S8.88,10.21,7.71,11.2A2,2,0,0,0,7,12.72v8.89A5.49,5.49,0,0,0,4,26.5V34a2,2,0,0,0,2,2H7v3a2,2,0,0,0,2,2h4a2,2,0,0,0,2-2V36H33v3a2,2,0,0,0,2,2h4a2,2,0,0,0,2-2V36h1a2,2,0,0,0,2-2V26.5A5.49,5.49,0,0,0,41,21.61ZM10,13.22C11.3,12.29,15.4,10,24.06,10S36.73,12.29,38,13.21V21H36V18a2,2,0,0,0-2-2H27.5a2,2,0,0,0-2,2v3h-3V18a2,2,0,0,0-2-2H14a2,2,0,0,0-2,2v3H10ZM34,21H27.5V18H34ZM20.5,21H14V18h6.5Zm-11,3h29A2.5,2.5,0,0,1,41,26.5V29H7V26.5A2.5,2.5,0,0,1,9.5,24ZM12,38H10V36h2Zm26,0H36V36h2Zm-5-5H7V31H41v2Z"/></g></svg>
